X:1
T:G minor Nehemiah Shumway, 1793
T:Isaaac Watts, 1706 ( Sovereignty and Grace ) 88. 86. (C. M.)
T:Lancaster No copyright.  Transcribed from The American Harmony, 1793.
%%score [ 1 2 3 4 ]
L:1/8
M:4/4
K:Bb
V:1 treble nm="Treble" snm="Tr."
V:2 treble nm="Counter" snm="C."
V:3 treble-8 nm="Tenor" snm="T."
V:4 bass nm="Bass" snm="B."
V:1
 B8 | A6 F2 | GA Bc d2 d2 | d8 | d4 d2 B2 | c4 (B2 G2) | A8 |: z8 | z8 | z4 d2 GG | A2 B2 AB AG | %11
w: |||||||||Na- ture, with|all her mov- * ing *|
 d2 d2 B2 B2 | B2 G2 A4- | A4 z4 | z4 d2 dd | c2 c2 d2 B2 | A2 F2 A2 AA | B2 G2 GA B2 | %18
w: frame, Rests on His|migh- ty hand.~||Na- ture, with|all her mov- ing|frame, * Na- ture, with|all her mov- * ing|
 (c4 d>e dc | B2) d2 B2 GB | (A2 G2) F4 | G8 :| %22
w: frame,~ * * * *|* Rests on His *|migh- * ty|hand.|
V:2
 D8 | F6 F2 | F2 FE D2 D2 | D8 | F4 FE DE | F4 G4 | F8 |: z8 | z8 | z8 | z4 D2 DE | F2 F2 F2 F2 | %12
w: 1.~The|Lord, how|fear- ful * is His|name,|How wide * is *|His com-|mand!||||Na- ture, with|all her mov- ing|
 F8 | D2 DD G2 B2 | A2 F2 G2 G2 | F2 F2 G2 G2 | F8 | G2 GG D2 G2 | F2 F2 G2 D2 | G4 D2 D2 | E4 D4 | %21
w: frame,|Na- ture, with all her|mov- ing frame, Rests|on His migh- ty|hand,|Na- ture, with all her|mov- ing frame, *|rests on His|migh- ty|
 D8 :| %22
w: hand.|
V:3
 G8 | d6 d2 | e2 dc B2 A2 | G8 | A4 B2 d2 | c4 (B3 c) | d8 |: z8 | z4 d2 GG | A2 A2 BA Bc | %10
w: ||||||||Na- ture, with|all her mov- * ing *|
 d2 d2 d2 dc | B2 Bc d4 | d2 de f2 fe | d2 g2 d2 d2 | c2 c2 B2 d2 | (c2 dc B2) Bc | d2 d2 B2 ce | %17
w: frame, Rests on His *|migh- ty * hand.|Na- ture, with all her *|mov- ing frame, Rests|on His migh- ty|hand,~ * * * Rests *|on His migh- ty *|
 d4 d2 Bd | c2 A2 B2 AG | d2 e2 d2 Bd | (c2 B2) A4 | G8 :| %22
w: hand. Na- ture, with|all her mov- ing *|frame, Rests on His *|migh- * ty|hand.|
V:4
 G,8 | D,6 D,2 | E,2 D,2 D,2 D,2 | G,,8 | D,4 B,,2 B,,2 | F,4 G,4 | D,8 |: z4 D,2 D,D, | %8
w: |||||||Na- ture, with|
 D,2 D,2 G,,2 G,,2 | D,2 D,2 G,2 G,2 | D,2 G,2 D,4 | D,2 D,D, D,2 D,2 | B,,2 B,,2 F,4 | %13
w: all her mov- ing|frame, Rests on His|migh- ty hand.|Na- ture, with all her|mov- ing frame,|
 D,2 D,D, G,2 G,2 | F,2 F,2 B,2 B,2 | F,2 F,2 G,2 G,2 | D,8 | G,2 D,D, D,2 B,,2 | %18
w: Na- ture with all her|mov- ing frame, Rests|on His migh- ty|hand.|Na- ture, with all her|
 F,2 F,2 (G,2 D,2) | G,4 D,2 B,,2 | C,4 D,4 | G,,8 :| %22
w: mov- ing frame, *|Rests on His|migh- ty|hand.|

